X:298
T: STOSST AN LEIPZIG SOLL LEBEN
N: F0521
O: Europa, Mitteleuropa, Deutschland
R: Studenten -, Burschenschafts - Lied
M: 6/8
L: 1/16
K: G
D2 | G6B3AG2 | A6d2zcA2 | B6z4
D2 | G6B3AG2 | A6d2zcA2 | B6z4
GB | d4d2d3ed2 | d2c2c2c4
A2 | B4d2g3dB2 | B2A2A2A6
G2G2G2B6 | A2G2A2G4
GB | d4d2d3ed2 | d2c2c2c4
A2 | B4d2g3dB2 | B2A2A2A6
G2G2G2B6 | A2G2A2G4

